icon-svg/rooms-outdoor-social-time.svg

<?xml version="1.0" encoding="UTF-8"?>
<svg width="32px" height="32px" viewBox="0 0 32 32" version="1.1" fill="#44739e" xmlns="http://www.w3.org/2000/svg" xmlns:xlink="http://www.w3.org/1999/xlink">
            <path d="M12.29,22 L12.816,20.432 C13.811,20.793 14.869,21 15.973,21 C17.278,21 18.525,20.725 19.67,20.227 L20.265,22 L12.29,22 Z M27,12 C27.553,12 28,12.447 28,13 C28,13.553 27.553,14 27,14 L25.312,14 C24.546,16.15 23.18,17.969 21.439,19.214 L23.049,24.005 C24.13,24.031 25,24.912 25,26 C25,27.104 24.103,28 23,28 C21.894,28 21,27.104 21,26 C21,25.636 21.104,25.299 21.274,25.005 L20.936,24 L11.618,24 L10.504,27.318 C10.363,27.736 9.973,28 9.555,28 C9.449,28 9.342,27.982 9.236,27.947 C8.713,27.771 8.432,27.205 8.607,26.682 L11.005,19.543 C9.028,18.302 7.472,16.352 6.634,14 L5,14 C4.447,14 4,13.553 4,13 C4,12.447 4.447,12 5,12 L6.117,12 C6.068,11.707 6.024,11.412 5.997,11.111 C5.943,10.519 6.4,10 6.997,10 L24.949,10 C25.545,10 26.003,10.519 25.949,11.111 C25.922,11.412 25.878,11.707 25.829,12 L27,12 Z M12.7226,7.916 C12.6486,7.867 11.9996,7.414 11.9996,6.723 C11.9996,6.422 12.1246,5.982 12.7226,5.584 C12.9256,5.447 12.9996,5.334 12.9996,5.277 C12.9996,5.172 12.8356,4.994 12.7226,4.916 C12.4926,4.762 12.4296,4.451 12.5836,4.223 C12.6796,4.078 12.8376,4 12.9996,4 C13.0956,4 13.1916,4.027 13.2776,4.084 C13.3516,4.133 13.9996,4.586 13.9996,5.277 C13.9996,5.576 13.8746,6.018 13.2776,6.416 C13.0726,6.551 12.9996,6.666 12.9996,6.721 C12.9976,6.826 13.1616,7.004 13.2796,7.086 C13.5076,7.238 13.5686,7.549 13.4156,7.777 C13.2616,8.008 12.9496,8.068 12.7226,7.916 Z M15.7226,7.916 C15.6486,7.867 14.9996,7.414 14.9996,6.723 C14.9996,6.423 15.1246,5.982 15.7226,5.584 C15.9256,5.448 15.9996,5.334 15.9996,5.278 C15.9996,5.173 15.8356,4.995 15.7226,4.916 C15.4926,4.763 15.4296,4.452 15.5836,4.223 C15.6796,4.078 15.8376,4 15.9996,4 C16.0956,4 16.1916,4.027 16.2776,4.084 C16.3516,4.133 16.9996,4.586 16.9996,5.277 C16.9996,5.577 16.8746,6.018 16.2776,6.416 C16.0726,6.552 15.9996,6.666 15.9996,6.722 C15.9976,6.827 16.1616,7.005 16.2796,7.086 C16.5076,7.239 16.5686,7.549 16.4156,7.777 C16.2616,8.008 15.9496,8.068 15.7226,7.916 Z M18.7226,7.916 C18.6486,7.867 17.9996,7.414 17.9996,6.723 C17.9996,6.422 18.1246,5.982 18.7226,5.584 C18.9256,5.447 18.9996,5.334 18.9996,5.277 C18.9996,5.172 18.8356,4.994 18.7226,4.916 C18.4926,4.762 18.4296,4.451 18.5836,4.223 C18.6796,4.078 18.8376,4 18.9996,4 C19.0956,4 19.1916,4.027 19.2776,4.084 C19.3516,4.133 19.9996,4.586 19.9996,5.277 C19.9996,5.576 19.8746,6.018 19.2776,6.416 C19.0726,6.551 18.9996,6.666 18.9996,6.721 C18.9976,6.826 19.1616,7.004 19.2796,7.086 C19.5076,7.238 19.5686,7.549 19.4156,7.777 C19.2616,8.008 18.9496,8.068 18.7226,7.916 Z"></path>
</svg>

<svg xmlns="http://www.w3.org/2000/svg" fill="#44739e" viewBox="0 0 24 24"><path d="m12.29 22 .526-1.568c.995.361 2.053.568 3.157.568 1.305 0 2.552-.275 3.697-.773L20.265 22zM27 12c.553 0 1 .447 1 1s-.447 1-1 1h-1.688c-.766 2.15-2.132 3.969-3.873 5.214l1.61 4.791C24.13 24.031 25 24.912 25 26c0 1.104-.897 2-2 2-1.106 0-2-.896-2-2 0-.364.104-.701.274-.995L20.936 24h-9.318l-1.114 3.318c-.141.418-.531.682-.949.682-.106 0-.213-.018-.319-.053-.523-.176-.804-.742-.629-1.265l2.398-7.139C9.028 18.302 7.472 16.352 6.634 14H5c-.553 0-1-.447-1-1s.447-1 1-1h1.117c-.049-.293-.093-.588-.12-.889-.054-.592.403-1.111 1-1.111h17.952c.596 0 1.054.519 1 1.111-.027.301-.071.596-.12.889zM12.7226 7.916c-.074-.049-.723-.502-.723-1.193 0-.301.125-.741.723-1.139.203-.137.277-.25.277-.307 0-.105-.164-.283-.277-.361-.23-.154-.293-.465-.139-.693a.497.497 0 0 1 .416-.223.5.5 0 0 1 .278.084c.074.049.722.502.722 1.193 0 .299-.125.741-.722 1.139-.205.135-.278.25-.278.305-.002.105.162.283.28.365.228.152.289.463.136.691-.154.231-.466.291-.693.139m3 0c-.074-.049-.723-.502-.723-1.193 0-.3.125-.741.723-1.139.203-.136.277-.25.277-.306 0-.105-.164-.283-.277-.362-.23-.153-.293-.464-.139-.693a.497.497 0 0 1 .416-.223.5.5 0 0 1 .278.084c.074.049.722.502.722 1.193 0 .3-.125.741-.722 1.139-.205.136-.278.25-.278.306-.002.105.162.283.28.364.228.153.289.463.136.691-.154.231-.466.291-.693.139m3 0c-.074-.049-.723-.502-.723-1.193 0-.301.125-.741.723-1.139.203-.137.277-.25.277-.307 0-.105-.164-.283-.277-.361-.23-.154-.293-.465-.139-.693a.497.497 0 0 1 .416-.223.5.5 0 0 1 .278.084c.074.049.722.502.722 1.193 0 .299-.125.741-.722 1.139-.205.135-.278.25-.278.305-.002.105.162.283.28.365.228.152.289.463.136.691-.154.231-.466.291-.693.139"/></svg>
